X:57
T:Cuckoes Fancy. ThoH.057
Q:1/2=80
M:C|
L:1/8
B:Thompson's Compleat Collection of 120 Favourite Hornpipes.
Z:Village Music Project, Simon Wilson 2016
O:England.
K:Eb
edc|(BGFE) (eBGE)|(cAFE)D2(fg)|(ag)(ag) (fedc)|(BAGF) (EBcd)|
(eB)(ge) (fd)(bf)|((3gfe) ((3dcB) ((3=ABc) ((3BAG)|(F=AcA) (egfe)|1df=AcB2:|2df=AcB4||
|:[D2B2f2](fg) (fB){c}TB2|a(B=AB) (fB)(af)|[E2B2g2]fg{b}Ta3g|(fedc){c}=B3c|
(dc)(dc) (BAGF)|[E3B3g3]E[F3c3a3]f|(ge)(fd) (e=B)(cA)|(GE)(FD) (CBcd)|
(eBGE)_d3(c/B/)|(cAEC) (A,cd=e)|(fcAF)e3(d/c/)|dBFD (B,fg=a)|
(bfdB)_a3(g/f/)|(gb)(df) (eg)(Bd)|(cedc) (BG)(cA)|G2F2E4:|

